svg/color/crowd.svg

<?xml version="1.0" encoding="UTF-8" ?>
<!DOCTYPE svg PUBLIC "-//W3C//DTD SVG 1.1//EN" "http://www.w3.org/Graphics/SVG/1.1/DTD/svg11.dtd">
<svg width="250pt" height="250pt" viewBox="0 0 250 250" version="1.1" xmlns="http://www.w3.org/2000/svg">
<g id="#ffffffff">
<path fill="#ffffff" opacity="1.00" d=" M 0.00 0.00 L 250.00 0.00 L 250.00 250.00 L 0.00 250.00 L 0.00 0.00 M 54.58 89.53 C 43.83 95.13 35.24 105.26 32.64 117.22 C 32.24 122.04 32.16 126.93 32.70 131.75 C 34.87 140.91 39.20 150.14 47.12 155.69 C 54.14 161.27 63.11 164.03 72.00 164.39 C 82.67 164.04 92.89 159.72 101.39 153.42 C 107.91 149.44 113.19 143.86 119.17 139.18 C 120.92 137.51 118.23 135.95 116.79 135.39 C 111.69 133.63 105.36 133.34 100.98 136.98 C 92.84 143.12 84.33 149.77 73.88 151.11 C 70.90 150.63 67.79 150.94 64.87 150.03 C 60.75 148.81 57.08 146.46 53.62 143.96 C 46.67 136.77 43.88 125.63 47.17 116.13 C 50.62 107.07 59.32 100.59 68.74 98.87 C 72.77 99.24 76.87 99.38 80.77 100.57 C 86.71 102.69 92.00 106.19 97.06 109.89 C 98.74 107.11 100.18 103.69 103.57 102.65 C 104.52 101.87 106.99 102.01 106.51 100.31 C 100.66 95.29 93.90 91.44 86.89 88.30 C 85.20 87.55 83.36 87.33 81.56 87.03 C 72.66 84.56 62.82 85.25 54.58 89.53 M 142.89 100.86 C 140.27 103.03 136.61 105.08 136.68 108.98 C 136.83 113.00 137.42 117.83 140.80 120.48 C 149.21 113.22 157.43 105.19 168.00 101.15 C 172.47 99.17 177.42 99.27 182.21 99.13 C 185.26 100.12 188.20 101.41 191.06 102.85 C 201.81 108.07 206.74 121.77 202.89 132.89 C 199.84 145.14 185.96 152.36 173.97 150.51 C 165.12 149.43 158.14 143.46 150.95 138.75 C 149.36 142.83 146.70 146.72 142.17 147.75 C 142.50 148.65 142.82 149.61 143.73 150.10 C 149.39 154.25 155.29 158.13 161.64 161.16 C 173.25 165.95 187.16 165.56 198.07 159.11 C 208.62 153.54 215.40 142.49 217.41 130.93 C 217.72 126.11 217.87 121.22 217.22 116.43 C 214.86 107.00 208.97 98.55 201.01 93.00 C 196.84 90.13 192.33 87.33 187.20 86.73 C 182.97 85.20 178.39 85.48 173.99 85.85 C 162.27 87.19 151.87 93.56 142.89 100.86 M 108.15 103.39 C 102.51 103.28 98.22 109.56 100.27 114.79 C 101.94 122.14 114.13 122.63 116.34 115.45 C 119.11 110.04 114.43 102.53 108.15 103.39 M 136.48 128.66 C 134.04 129.61 132.08 131.74 131.20 134.20 C 128.98 139.29 133.50 145.85 139.00 145.78 C 145.50 146.72 150.88 138.33 147.22 132.83 C 145.41 128.75 140.50 127.55 136.48 128.66 Z" />
</g>
<g id="#1dd876ff">
<path fill="#1dd876" opacity="1.00" d=" M 54.58 89.53 C 62.82 85.25 72.66 84.56 81.56 87.03 C 80.50 90.49 79.39 94.13 76.85 96.83 C 74.29 97.97 71.45 98.23 68.74 98.87 C 59.32 100.59 50.62 107.07 47.17 116.13 C 43.88 125.63 46.67 136.77 53.62 143.96 C 53.02 148.58 50.46 152.54 47.12 155.69 C 39.20 150.14 34.87 140.91 32.70 131.75 C 32.16 126.93 32.24 122.04 32.64 117.22 C 35.24 105.26 43.83 95.13 54.58 89.53 Z" />
</g>
<g id="#0fadbeff">
<path fill="#0fadbe" opacity="1.00" d=" M 142.89 100.86 C 151.87 93.56 162.27 87.19 173.99 85.85 C 178.39 85.48 182.97 85.20 187.20 86.73 C 184.74 86.96 182.13 86.80 179.84 87.80 C 177.63 90.67 176.18 94.03 174.23 97.06 C 176.92 97.63 179.60 98.24 182.21 99.13 C 177.42 99.27 172.47 99.17 168.00 101.15 C 157.43 105.19 149.21 113.22 140.80 120.48 C 137.42 117.83 136.83 113.00 136.68 108.98 C 136.61 105.08 140.27 103.03 142.89 100.86 Z" />
</g>
<g id="#18c793ff">
<path fill="#18c793" opacity="1.00" d=" M 81.56 87.03 C 83.36 87.33 85.20 87.55 86.89 88.30 C 93.90 91.44 100.66 95.29 106.51 100.31 C 106.99 102.01 104.52 101.87 103.57 102.65 C 100.18 103.69 98.74 107.11 97.06 109.89 C 92.00 106.19 86.71 102.69 80.77 100.57 C 76.87 99.38 72.77 99.24 68.74 98.87 C 71.45 98.23 74.29 97.97 76.85 96.83 C 79.39 94.13 80.50 90.49 81.56 87.03 Z" />
</g>
<g id="#0ca2d1ff">
<path fill="#0ca2d1" opacity="1.00" d=" M 179.84 87.80 C 182.13 86.80 184.74 86.96 187.20 86.73 C 192.33 87.33 196.84 90.13 201.01 93.00 C 208.97 98.55 214.86 107.00 217.22 116.43 C 217.87 121.22 217.72 126.11 217.41 130.93 C 215.40 142.49 208.62 153.54 198.07 159.11 C 187.16 165.56 173.25 165.95 161.64 161.16 C 155.29 158.13 149.39 154.25 143.73 150.10 C 142.82 149.61 142.50 148.65 142.17 147.75 C 146.70 146.72 149.36 142.83 150.95 138.75 C 158.14 143.46 165.12 149.43 173.97 150.51 C 185.96 152.36 199.84 145.14 202.89 132.89 C 206.74 121.77 201.81 108.07 191.06 102.85 C 188.20 101.41 185.26 100.12 182.21 99.13 C 179.60 98.24 176.92 97.63 174.23 97.06 C 176.18 94.03 177.63 90.67 179.84 87.80 Z" />
</g>
<g id="#0b9ed9ff">
<path fill="#0b9ed9" opacity="1.00" d=" M 108.15 103.39 C 114.43 102.53 119.11 110.04 116.34 115.45 C 114.13 122.63 101.94 122.14 100.27 114.79 C 98.22 109.56 102.51 103.28 108.15 103.39 Z" />
<path fill="#0b9ed9" opacity="1.00" d=" M 136.48 128.66 C 140.50 127.55 145.41 128.75 147.22 132.83 C 150.88 138.33 145.50 146.72 139.00 145.78 C 133.50 145.85 128.98 139.29 131.20 134.20 C 132.08 131.74 134.04 129.61 136.48 128.66 Z" />
</g>
<g id="#14b9a9ff">
<path fill="#14b9a9" opacity="1.00" d=" M 100.98 136.98 C 105.36 133.34 111.69 133.63 116.79 135.39 C 118.23 135.95 120.92 137.51 119.17 139.18 C 113.19 143.86 107.91 149.44 101.39 153.42 C 92.89 159.72 82.67 164.04 72.00 164.39 C 74.03 160.35 76.01 156.28 77.76 152.11 C 76.47 151.76 75.18 151.41 73.88 151.11 C 84.33 149.77 92.84 143.12 100.98 136.98 Z" />
</g>
<g id="#17c693ff">
<path fill="#17c693" opacity="1.00" d=" M 53.62 143.96 C 57.08 146.46 60.75 148.81 64.87 150.03 C 67.79 150.94 70.90 150.63 73.88 151.11 C 75.18 151.41 76.47 151.76 77.76 152.11 C 76.01 156.28 74.03 160.35 72.00 164.39 C 63.11 164.03 54.14 161.27 47.12 155.69 C 50.46 152.54 53.02 148.58 53.62 143.96 Z" />
</g>
</svg>

<?xml version="1.0" encoding="utf-8"?>
<!-- Generator: Adobe Illustrator 26.0.3, SVG Export Plug-In . SVG Version: 6.00 Build 0)  -->
<svg version="1.1" id="Layer_1" xmlns="http://www.w3.org/2000/svg" xmlns:xlink="http://www.w3.org/1999/xlink" x="0px" y="0px"
	 viewBox="0 0 250 250" style="enable-background:new 0 0 250 250;" xml:space="preserve">
<style type="text/css">
	.st0{fill:#1DD876;}
	.st1{fill:#0FADBE;}
	.st2{fill:#18C793;}
	.st3{fill:#0CA2D1;}
	.st4{fill:#0B9ED9;}
	.st5{fill:#14B9A9;}
	.st6{fill:#17C693;}
</style>
<g id="_x23_1dd876ff">
	<path class="st0" d="M54.6,89.5c8.2-4.3,18.1-5,27-2.5c-1.1,3.5-2.2,7.1-4.7,9.8c-2.6,1.1-5.4,1.4-8.1,2
		c-9.4,1.7-18.1,8.2-21.6,17.3c-3.3,9.5-0.5,20.6,6.5,27.8c-0.6,4.6-3.2,8.6-6.5,11.7c-7.9-5.6-12.2-14.8-14.4-23.9
		c-0.5-4.8-0.5-9.7-0.1-14.5C35.2,105.3,43.8,95.1,54.6,89.5z"/>
</g>
<g id="_x23_0fadbeff">
	<path class="st1" d="M142.9,100.9c9-7.3,19.4-13.7,31.1-15c4.4-0.4,9-0.7,13.2,0.9c-2.5,0.2-5.1,0.1-7.4,1.1
		c-2.2,2.9-3.7,6.2-5.6,9.3c2.7,0.6,5.4,1.2,8,2.1c-4.8,0.1-9.7,0-14.2,2c-10.6,4-18.8,12.1-27.2,19.3c-3.4-2.7-4-7.5-4.1-11.5
		C136.6,105.1,140.3,103,142.9,100.9z"/>
</g>
<g id="_x23_18c793ff">
	<path class="st2" d="M81.6,87c1.8,0.3,3.6,0.5,5.3,1.3c7,3.1,13.8,7,19.6,12c0.5,1.7-2,1.6-2.9,2.3c-3.4,1-4.8,4.5-6.5,7.2
		c-5.1-3.7-10.3-7.2-16.3-9.3c-3.9-1.2-8-1.3-12-1.7c2.7-0.6,5.6-0.9,8.1-2C79.4,94.1,80.5,90.5,81.6,87z"/>
</g>
<g id="_x23_0ca2d1ff">
	<path class="st3" d="M179.8,87.8c2.3-1,4.9-0.8,7.4-1.1c5.1,0.6,9.6,3.4,13.8,6.3c8,5.6,13.9,14,16.2,23.4
		c0.6,4.8,0.5,9.7,0.2,14.5c-2,11.6-8.8,22.6-19.3,28.2c-10.9,6.4-24.8,6.8-36.4,2.1c-6.4-3-12.2-6.9-17.9-11.1
		c-0.9-0.5-1.2-1.5-1.6-2.4c4.5-1,7.2-4.9,8.8-9c7.2,4.7,14.2,10.7,23,11.8c12,1.9,25.9-5.4,28.9-17.6c3.9-11.1-1.1-24.8-11.8-30
		c-2.9-1.4-5.8-2.7-8.8-3.7c-2.6-0.9-5.3-1.5-8-2.1C176.2,94,177.6,90.7,179.8,87.8z"/>
</g>
<g id="_x23_0b9ed9ff">
	<path class="st4" d="M108.2,103.4c6.3-0.9,11,6.7,8.2,12.1c-2.2,7.2-14.4,6.7-16.1-0.7C98.2,109.6,102.5,103.3,108.2,103.4z"/>
	<path class="st4" d="M136.5,128.7c4-1.1,8.9,0.1,10.7,4.2c3.7,5.5-1.7,13.9-8.2,12.9c-5.5,0.1-10-6.5-7.8-11.6
		C132.1,131.7,134,129.6,136.5,128.7z"/>
</g>
<g id="_x23_14b9a9ff">
	<path class="st5" d="M101,137c4.4-3.6,10.7-3.3,15.8-1.6c1.4,0.6,4.1,2.1,2.4,3.8c-6,4.7-11.3,10.3-17.8,14.2
		c-8.5,6.3-18.7,10.6-29.4,11c2-4,4-8.1,5.8-12.3c-1.3-0.4-2.6-0.7-3.9-1C84.3,149.8,92.8,143.1,101,137z"/>
</g>
<g id="_x23_17c693ff">
	<path class="st6" d="M53.6,144c3.5,2.5,7.1,4.8,11.3,6.1c2.9,0.9,6,0.6,9,1.1c1.3,0.3,2.6,0.6,3.9,1c-1.8,4.2-3.7,8.2-5.8,12.3
		c-8.9-0.4-17.9-3.1-24.9-8.7C50.5,152.5,53,148.6,53.6,144z"/>
</g>
</svg>
